X:1
T:Jackson's Bottle of Brandy
M:6/8
L:1/8
K:G Major
G2e dBG|BAB dBA|G2e dBG|AGA BGE|!
G2e dBG|BAB def|gfe dBG|ABG FED:|!
g3 f3|e3 def|g3 efg|a3 bge|!
g3 f3|e3 def|gfe dBG|ABG FED:|!
